X: 020532
T: Ballinalacken
S: Treoir
Z: B.Black
M: 4/4
L: 1/8
R: reel
K: Edor
BE E2 BE E2|DEFD ADFD|BE (3EFE B3 z|AFDE FE (3EFE |
BE E2 BE E2|defd Adfd|GBAF G2 (3ABc|dBAF FEEF ||
G2 AG dGBG | GABG AFDE | G2 AG d2 Bd |AFDE FEEF |
G2 AG dGBG | G2 BG AF D2 | GABc d2 e2 |dBAG EGGA ||
